img/hero_img/ai_icon.svg

<svg width="23" height="23" viewBox="0 0 23 23" fill="none" xmlns="http://www.w3.org/2000/svg">
<path d="M7.98131 5.68494C7.88281 5.64473 7.79326 5.58538 7.71785 5.51032C7.64244 5.43527 7.58267 5.346 7.542 5.24769L6.88819 3.76337C6.76581 3.52756 6.41381 3.52756 6.29831 3.76337L5.64381 5.24837C5.55528 5.4422 5.39943 5.59732 5.20519 5.68494L4.37056 6.04519C4.31566 6.07069 4.26918 6.11136 4.23662 6.16239C4.20405 6.21343 4.18675 6.27271 4.18675 6.33325C4.18675 6.39379 4.20405 6.45307 4.23662 6.5041C4.26918 6.55514 4.31566 6.59581 4.37056 6.62131L5.20519 6.98156C5.40663 7.06475 5.56475 7.22425 5.64381 7.41881L6.29831 8.91C6.42069 9.14581 6.77269 9.14581 6.88819 8.91L7.54269 7.41812C7.62931 7.22425 7.78744 7.07162 7.98131 6.98156L8.81594 6.62131C8.87084 6.59581 8.91732 6.55514 8.94988 6.5041C8.98245 6.45307 8.99975 6.39379 8.99975 6.33325C8.99975 6.27271 8.98245 6.21343 8.94988 6.16239C8.91732 6.11136 8.87084 6.07069 8.81594 6.04519L7.98131 5.68494ZM18.3309 10.1557C17.733 9.88809 17.2603 9.40177 17.0096 8.79656L15.0419 4.14356C14.9615 3.97666 14.8356 3.83585 14.6787 3.73731C14.5218 3.63876 14.3403 3.58649 14.1551 3.58649C13.9698 3.58649 13.7883 3.63876 13.6314 3.73731C13.4745 3.83585 13.3486 3.97666 13.2682 4.14356L11.2999 8.79656C11.0453 9.39896 10.574 9.88396 9.97919 10.1557L7.48906 11.2832C6.75206 11.6476 6.75206 12.7132 7.48906 13.0776L9.97919 14.2051C10.5767 14.4734 11.0493 14.9595 11.3006 15.5643L13.2682 20.2173C13.3486 20.3842 13.4745 20.525 13.6314 20.6236C13.7883 20.7221 13.9698 20.7744 14.1551 20.7744C14.3403 20.7744 14.5218 20.7221 14.6787 20.6236C14.8356 20.525 14.9615 20.3842 15.0419 20.2173L17.0103 15.5643C17.2648 14.9619 17.7361 14.4769 18.3309 14.2051L20.8211 13.0776C21.5581 12.7132 21.5581 11.6476 20.8211 11.2832L18.3309 10.1557ZM6.442 14.8136C6.552 15.0831 6.75412 15.2921 7.00712 15.4131L8.07275 15.9115C8.14481 15.949 8.20521 16.0056 8.24735 16.075C8.2895 16.1445 8.31179 16.2242 8.31179 16.3054C8.31179 16.3867 8.2895 16.4664 8.24735 16.5358C8.20521 16.6053 8.14481 16.6619 8.07275 16.6994L7.00712 17.1978C6.75412 17.3188 6.55269 17.5347 6.442 17.7973L5.59775 19.844C5.56404 19.9164 5.51035 19.9777 5.443 20.0206C5.37565 20.0636 5.29743 20.0864 5.21756 20.0864C5.13769 20.0864 5.05948 20.0636 4.99213 20.0206C4.92478 19.9777 4.87109 19.9164 4.83737 19.844L3.99381 17.7973C3.88665 17.5341 3.68514 17.3203 3.42869 17.1978L2.36306 16.6994C2.291 16.6619 2.2306 16.6053 2.18846 16.5358C2.14631 16.4664 2.12402 16.3867 2.12402 16.3054C2.12402 16.2242 2.14631 16.1445 2.18846 16.075C2.2306 16.0056 2.291 15.949 2.36306 15.9115L3.42869 15.4131C3.68169 15.2921 3.88312 15.0762 3.99381 14.8136L4.83806 12.7669C4.87178 12.6945 4.92546 12.6332 4.99282 12.5903C5.06017 12.5473 5.13838 12.5245 5.21825 12.5245C5.29812 12.5245 5.37633 12.5473 5.44368 12.5903C5.51104 12.6332 5.56472 12.6945 5.59844 12.7669L6.442 14.8136Z" fill="url(#paint0_linear_938_26852)"/>
<defs>
<linearGradient id="paint0_linear_938_26852" x1="-3.04487" y1="0.721631" x2="14.055" y2="25.0488" gradientUnits="userSpaceOnUse">
<stop stop-color="#335CFF"/>
<stop offset="1" stop-color="#00EEA3"/>
</linearGradient>
</defs>
</svg>

<svg xmlns="http://www.w3.org/2000/svg" width="23" height="23" fill="none"><path fill="url(#a)" d="M7.981 5.685a.8.8 0 0 1-.439-.437l-.654-1.485c-.122-.235-.474-.235-.59 0l-.654 1.485a.88.88 0 0 1-.439.437l-.834.36a.318.318 0 0 0 0 .576l.834.36c.202.084.36.243.439.438l.654 1.491c.123.236.475.236.59 0l.655-1.492a.88.88 0 0 1 .438-.436l.835-.36a.318.318 0 0 0 0-.577zm10.35 4.47a2.56 2.56 0 0 1-1.321-1.358l-1.968-4.653a.984.984 0 0 0-1.774 0L11.3 8.797a2.6 2.6 0 0 1-1.32 1.359l-2.49 1.127c-.738.365-.738 1.43 0 1.795l2.49 1.127c.597.268 1.07.755 1.32 1.36l1.968 4.652a.985.985 0 0 0 1.774 0l1.968-4.653a2.6 2.6 0 0 1 1.32-1.359l2.491-1.127c.737-.365.737-1.43 0-1.795zM6.442 14.815c.11.27.312.478.565.6l1.066.498a.444.444 0 0 1 0 .787l-1.066.499a1.17 1.17 0 0 0-.565.6l-.844 2.046a.42.42 0 0 1-.76 0l-.844-2.047a1.14 1.14 0 0 0-.565-.6L2.363 16.7a.444.444 0 0 1 0-.788l1.066-.498c.253-.12.454-.337.565-.6l.844-2.046a.42.42 0 0 1 .76 0z"/><defs><linearGradient id="a" x1="-3.045" x2="14.055" y1=".722" y2="25.049" gradientUnits="userSpaceOnUse"><stop stop-color="#335CFF"/><stop offset="1" stop-color="#00EEA3"/></linearGradient></defs></svg>
